assets/facebookIcon.svg

<svg width="50" height="50" viewBox="0 0 50 50" fill="none" xmlns="http://www.w3.org/2000/svg">
<path d="M25 3C12.85 3 3 12.85 3 25C3 36.03 11.125 45.137 21.712 46.728V30.831H16.269V25.048H21.712V21.2C21.712 14.829 24.816 12.032 30.111 12.032C32.647 12.032 33.988 12.22 34.623 12.306V17.354H31.011C28.763 17.354 27.978 19.485 27.978 21.887V25.048H34.566L33.672 30.831H27.978V46.775C38.716 45.318 47 36.137 47 25C47 12.85 37.15 3 25 3Z" fill="#FFFFFF"/>
</svg>

<svg width="50" height="50" fill="none" xmlns="http://www.w3.org/2000/svg"><path d="M25 3a22 22 0 0 0-3.3 43.7V30.8h-5.4V25h5.4v-3.8c0-6.4 3.1-9.2 8.4-9.2 2.5 0 3.9.2 4.5.3v5H31c-2.2 0-3 2.2-3 4.6V25h6.6l-1 5.8H28v16A22 22 0 0 0 25 3Z" fill="#FFF"/></svg>
